X: 3
T:Western Country
T:Fly Around My Pretty Little Miss
L:1/8
M:C|
K:D
|: "D"[f2d2]e2 d2B2 | vde-dB- A2 uA2- | A2uA2 B2 d2 |\
      v[f3d3]ue- [f2d2] u[f2d2] |
  "D"v[f2d2]e2 d2B2 | vde-dB- A2 uA2- | "A"A2uA2 BAcA |\
   "D"v[f3d3] u[de]- [f2d2] v[f2d2] :|
|: "D"va2a2 fa3 | "G"b3a b2a2- | "D"a2va2 agf2  | "A"[e4A4] [e2A2]fg |
   "D"a2a2 fa3 | "G"b3a b2a2- | "A"a2va2 gfe2  |\
   "D"v[f3d3] u[de]- [f2d2] u[f2d2] :|
N:Portland Collection, pg 288 - abc by Peter Ostapenko 3/16/2007
N:Adapted by Peter Ostapenko 5/12/2007
N:D Major
